build/system/CloudUploadSolid.svg

<svg xmlns="http://www.w3.org/2000/svg" fill="none" viewBox="0 0 24 24" focusable="false"><path d="M0 0H24V24H0z"/><path fill="#74767B" fill-rule="evenodd" d="M5.33545 19.0307L10.593 19.0308C10.9796 19.0308 11.293 18.7174 11.293 18.3308L11.293 14.3271L9.91849 15.8777C9.67849 16.1477 9.26849 16.1577 8.99849 15.9177C8.73849 15.6777 8.71849 15.2677 8.95849 14.9977L11.423 12.2877C11.703 11.9777 12.183 11.9777 12.463 12.2877L15.0385 14.9977C15.1585 15.1277 15.2085 15.2777 15.2085 15.4377C15.2085 15.6177 15.1385 15.7877 14.9985 15.9177C14.7285 16.1577 14.3185 16.1377 14.0785 15.8777L12.593 14.3201L12.593 18.3308C12.593 18.7174 12.9064 19.0308 13.293 19.0308L17.5536 19.0308C20.0073 19.0306 21.9966 17.0412 21.9966 14.5875C21.9966 12.2943 20.2592 10.4068 18.0289 10.1696C17.9737 10.1637 17.9188 10.1527 17.866 10.1353C17.6153 10.0525 17.4336 9.83775 17.3691 9.58173C16.7016 6.93129 14.3023 4.96924 11.4446 4.96924C8.07062 4.96924 5.33545 7.70441 5.33545 11.0784C5.33545 11.2955 5.34677 11.5099 5.36885 11.7211C5.39874 12.007 5.23766 12.2851 4.96473 12.3752C4.92969 12.3868 4.89345 12.3948 4.85692 12.4001C3.24315 12.632 2.00293 14.0203 2.00293 15.6983C2.00293 17.5386 3.49508 19.0307 5.33545 19.0307Z"/></svg>

<svg xmlns="http://www.w3.org/2000/svg" fill="none" viewBox="0 0 24 24" focusable="false"><path fill="#74767B" fill-rule="evenodd" d="M5.33 19.03h5.26c.38 0 .7-.32.7-.7v-4.01l-1.38 1.55a.65.65 0 0 1-.92.04.66.66 0 0 1-.04-.92l2.47-2.71c.28-.31.76-.31 1.04 0l2.57 2.71c.12.13.17.28.17.44 0 .18-.07.35-.21.48-.27.24-.68.22-.92-.04l-1.48-1.55v4.01c0 .38.31.7.7.7h4.26c2.45 0 4.44-1.99 4.44-4.45 0-2.29-1.74-4.18-3.97-4.42-.05 0-.11-.01-.16-.03-.25-.08-.43-.3-.5-.55a6.105 6.105 0 0 0-5.92-4.62c-3.37 0-6.11 2.74-6.11 6.11 0 .22.01.43.03.65.03.28-.13.56-.4.65l-.11.03A3.33 3.33 0 0 0 2 15.69c0 1.84 1.49 3.34 3.33 3.34"/></svg>
